assets/img/icons/file-add.svg

<svg width="29" height="38" viewBox="0 0 29 38" fill="none" xmlns="http://www.w3.org/2000/svg">
<path d="M11.7118 37.9999C8.46394 37.9999 5.70666 36.86 3.43999 34.5801C1.17336 32.3003 0.0400391 29.5364 0.0400391 26.2884V8.30765C0.0400391 5.99998 0.841305 4.03847 2.44384 2.4231C4.04641 0.807702 6.00152 0 8.30919 0C10.6169 0 12.572 0.807702 14.1745 2.4231C15.7771 4.03847 16.5784 5.99998 16.5784 8.30765V21.5C16.5784 21.925 16.4346 22.2812 16.1469 22.5687C15.8593 22.8562 15.5029 23 15.0777 23C14.6526 23 14.2964 22.8562 14.0092 22.5687C13.722 22.2812 13.5784 21.925 13.5784 21.5V8.28845C13.5579 6.81152 13.045 5.56087 12.0396 4.5365C11.0343 3.51214 9.79079 2.99995 8.30919 2.99995C6.83382 2.99995 5.58677 3.51533 4.56804 4.5461C3.54931 5.57687 3.03994 6.83072 3.03994 8.30765V26.2884C3.01944 28.7063 3.85534 30.7628 5.54764 32.4577C7.23997 34.1525 9.29511 35 11.713 35C12.2797 35 12.8259 34.9416 13.3515 34.825C13.8772 34.7083 14.3797 34.5602 14.8592 34.3807C15.2515 34.232 15.6389 34.2373 16.0213 34.3965C16.4038 34.5556 16.6715 34.8311 16.8245 35.223C16.9732 35.6153 16.9649 36.0038 16.7995 36.3884C16.6342 36.773 16.3553 37.0396 15.963 37.1884C15.3015 37.455 14.615 37.6569 13.9034 37.7941C13.1919 37.9313 12.4614 37.9999 11.7118 37.9999ZM21.8469 35.9999C21.4218 35.9999 21.0656 35.8562 20.7784 35.5687C20.4913 35.2812 20.3477 34.9249 20.3477 34.4999V30.3845H16.2323C15.8073 30.3845 15.451 30.2407 15.1635 29.9531C14.876 29.6655 14.7323 29.3091 14.7323 28.8839C14.7323 28.4587 14.876 28.1025 15.1635 27.8154C15.451 27.5282 15.8073 27.3846 16.2323 27.3846H20.3477V23.2692C20.3477 22.8442 20.4915 22.488 20.7791 22.2005C21.0667 21.913 21.4231 21.7693 21.8483 21.7693C22.2735 21.7693 22.6297 21.913 22.9168 22.2005C23.204 22.488 23.3476 22.8442 23.3476 23.2692V27.3846H27.463C27.888 27.3846 28.2442 27.5284 28.5317 27.8161C28.8192 28.1037 28.9629 28.4601 28.9629 28.8853C28.9629 29.3104 28.8192 29.6666 28.5317 29.9538C28.2442 30.2409 27.888 30.3845 27.463 30.3845H23.3476V34.4999C23.3476 34.9249 23.2038 35.2812 22.9161 35.5687C22.6285 35.8562 22.2721 35.9999 21.8469 35.9999ZM8.30854 28.8846C7.88334 28.8846 7.52716 28.7408 7.23999 28.4533C6.95282 28.1658 6.80924 27.8096 6.80924 27.3846V9.2692C6.80924 8.8442 6.95306 8.48795 7.24069 8.20045C7.52829 7.91299 7.88469 7.76925 8.30989 7.76925C8.73506 7.76925 9.09122 7.91299 9.37839 8.20045C9.66559 8.48795 9.80919 8.8442 9.80919 9.2692V27.3846C9.80919 27.8096 9.66537 28.1658 9.37774 28.4533C9.09011 28.7408 8.73371 28.8846 8.30854 28.8846ZM21.8469 17.3846C21.4218 17.3846 21.0656 17.2409 20.7784 16.9534C20.4913 16.6659 20.3477 16.3096 20.3477 15.8847V9.2692C20.3477 8.8442 20.4915 8.48795 20.7791 8.20045C21.0667 7.91299 21.4231 7.76925 21.8483 7.76925C22.2735 7.76925 22.6297 7.91299 22.9168 8.20045C23.204 8.48795 23.3476 8.8442 23.3476 9.2692V15.8847C23.3476 16.3096 23.2038 16.6659 22.9161 16.9534C22.6285 17.2409 22.2721 17.3846 21.8469 17.3846Z" fill="#1C1B1F"/>
</svg>

<svg width="29" height="38" fill="none" xmlns="http://www.w3.org/2000/svg"><path d="M11.712 38c-3.248 0-6.005-1.14-8.272-3.42-2.267-2.28-3.4-5.044-3.4-8.292V8.308c0-2.308.801-4.27 2.404-5.885C4.046.808 6.002 0 8.309 0c2.308 0 4.263.808 5.866 2.423C15.777 4.038 16.578 6 16.578 8.308V21.5c0 .425-.143.781-.431 1.069a1.452 1.452 0 01-1.07.431 1.45 1.45 0 01-1.068-.431 1.452 1.452 0 01-.43-1.069V8.288c-.021-1.476-.534-2.727-1.54-3.752C11.035 3.513 9.792 3 8.31 3c-1.475 0-2.722.515-3.741 1.546-1.02 1.03-1.529 2.285-1.529 3.762v17.98c-.02 2.418.815 4.475 2.508 6.17C7.24 34.153 9.295 35 11.713 35c.567 0 1.113-.058 1.639-.175a11.247 11.247 0 001.507-.444 1.52 1.52 0 011.162.016c.383.159.65.434.803.826a1.5 1.5 0 01-.025 1.165 1.426 1.426 0 01-.836.8c-.661.267-1.348.469-2.06.606a11.56 11.56 0 01-2.191.206zm10.135-2a1.45 1.45 0 01-1.069-.431 1.453 1.453 0 01-.43-1.07v-4.115h-4.116a1.45 1.45 0 01-1.068-.43 1.452 1.452 0 01-.432-1.07c0-.425.144-.782.432-1.069a1.45 1.45 0 011.068-.43h4.116v-4.116c0-.425.143-.781.431-1.068a1.452 1.452 0 011.07-.432c.424 0 .78.144 1.068.432.287.287.43.643.43 1.068v4.116h4.116c.425 0 .781.143 1.069.431.287.288.43.644.43 1.07 0 .424-.143.78-.43 1.068-.288.287-.644.43-1.069.43h-4.115V34.5c0 .425-.144.781-.432 1.069a1.452 1.452 0 01-1.07.43zM8.309 28.885a1.45 1.45 0 01-1.069-.432 1.452 1.452 0 01-.43-1.068V9.269c0-.425.143-.781.43-1.069a1.452 1.452 0 011.07-.43c.425 0 .781.143 1.068.43.288.288.431.644.431 1.07v18.115c0 .425-.144.78-.431 1.068a1.452 1.452 0 01-1.07.432zm13.538-11.5a1.45 1.45 0 01-1.069-.432 1.453 1.453 0 01-.43-1.068V9.269c0-.425.143-.781.431-1.069a1.452 1.452 0 011.07-.43c.424 0 .78.143 1.068.43.287.288.43.644.43 1.07v6.615c0 .425-.143.78-.43 1.068a1.452 1.452 0 01-1.07.432z" fill="#1C1B1F"/></svg>
